resources/svg/bitcoin.svg

<svg xmlns="http://www.w3.org/2000/svg" viewBox="0 0 15 15" fill="currentColor"><path fill-rule="evenodd" clip-rule="evenodd" d="M3 1V0H4V1H7V0H8V1H8.5C10.433 1 12 2.567 12 4.5C12 5.59515 11.497 6.57282 10.7095 7.2146C12.0464 7.70695 13 8.99212 13 10.5C13 12.433 11.433 14 9.5 14H8V15H7V14H4V15H3V14H2V13H3V8H2V7H3V2H2V1H3ZM4 2V7H8.5C9.88071 7 11 5.88071 11 4.5C11 3.11929 9.88071 2 8.5 2H4ZM4 8H9.5C10.8807 8 12 9.11929 12 10.5C12 11.8807 10.8807 13 9.5 13H4V8Z" fill="black"/></svg>

<svg xmlns="http://www.w3.org/2000/svg" viewBox="0 0 15 15" fill="currentColor"><path fill-rule="evenodd" clip-rule="evenodd" d="M3 1V0h1v1h3V0h1v1h.5a3.5 3.5 0 012.21 6.215A3.501 3.501 0 019.5 14H8v1H7v-1H4v1H3v-1H2v-1h1V8H2V7h1V2H2V1h1zm1 1v5h4.5a2.5 2.5 0 000-5H4zm0 6h5.5a2.5 2.5 0 010 5H4V8z" fill="currentColor"/></svg>
